svg/publishing/giving.svg

<svg width="16" height="16" viewBox="0 0 16 16" fill="none" xmlns="http://www.w3.org/2000/svg">
<path d="M15 2.70705H12.551C12.5252 2.69807 12.4988 2.69105 12.472 2.68605C12.4246 2.68638 12.3774 2.69345 12.332 2.70705L3.646 2.68805C3.63355 2.68443 3.62085 2.68176 3.608 2.68005V2.68005C3.595 2.68005 3.584 2.68605 3.57 2.68705H1.025C0.892647 2.68708 0.765706 2.73957 0.672 2.83301C0.625418 2.87943 0.588455 2.93459 0.56323 2.99532C0.538005 3.05605 0.525014 3.12115 0.525 3.18691V5.66521C0.513838 5.69159 0.505459 5.71907 0.5 5.74719C0.502452 5.78113 0.508828 5.81468 0.519 5.84716L0.508 12.7972C0.508 12.9298 0.560678 13.0569 0.654447 13.1507C0.748215 13.2444 0.875392 13.2971 1.008 13.2971L14.986 13.3201C15.1186 13.3201 15.2458 13.2674 15.3396 13.1736C15.4333 13.0799 15.486 12.9528 15.486 12.8202L15.5 3.2079C15.5001 3.14218 15.4873 3.07707 15.4622 3.01631C15.4372 2.95555 15.4003 2.90033 15.3539 2.8538C15.3075 2.80728 15.2523 2.77037 15.1916 2.74519C15.1308 2.72001 15.0657 2.70705 15 2.70705V2.70705ZM11.788 12.3123L4.06 12.2973C3.96332 11.655 3.66419 11.0603 3.20611 10.5997C2.74804 10.139 2.15491 9.83649 1.513 9.73606L1.518 6.20406C1.745 6.17043 1.96744 6.11107 2.181 6.02711C2.55798 5.87485 2.90105 5.64945 3.19043 5.36393C3.47981 5.07841 3.70976 4.73842 3.867 4.36358C3.95527 4.14622 4.01835 3.91948 4.055 3.68777L11.955 3.70077C11.9804 3.90518 12.0277 4.10627 12.096 4.3006C12.2278 4.67178 12.4346 5.01189 12.7035 5.29979C12.9724 5.58769 13.2976 5.81723 13.659 5.97412C13.9241 6.0854 14.2047 6.1552 14.491 6.18107V9.65209C13.8232 9.74078 13.2015 10.0419 12.718 10.5108C12.2198 10.9938 11.8935 11.6265 11.789 12.3123H11.788ZM14.5 5.18535C14.0929 5.12401 13.7191 4.925 13.441 4.62151C13.2641 4.43414 13.1279 4.21222 13.041 3.96969C13.0129 3.88241 12.9912 3.7932 12.976 3.70277H14.498L14.5 5.18535ZM3.034 3.68677C3.01119 3.78571 2.98145 3.88292 2.945 3.97769C2.83847 4.23044 2.68318 4.45974 2.488 4.6525C2.29269 4.84561 2.06084 4.99787 1.806 5.10037C1.71261 5.13563 1.61667 5.16371 1.519 5.18435V3.68477L3.034 3.68677ZM1.511 10.7508C1.88509 10.8406 2.22672 11.0329 2.49752 11.3061C2.76833 11.5793 2.95757 11.9226 3.044 12.2973H1.509L1.511 10.7508ZM12.8 12.3143C12.8963 11.9075 13.1066 11.5365 13.4063 11.2449C13.706 10.9533 14.0826 10.7531 14.492 10.6678V12.3163L12.8 12.3143ZM10.5 5.32631C10.1869 5.12512 9.82316 5.01696 9.451 5.0144C9.01947 5.01198 8.59767 5.14254 8.243 5.38829C8.14036 5.46026 8.04462 5.54158 7.957 5.63122C7.86913 5.54176 7.77304 5.46076 7.67 5.38929C7.31386 5.13913 6.8877 5.008 6.45249 5.01464C6.01729 5.02128 5.59533 5.16537 5.247 5.42628C4.89752 5.7002 4.65371 6.08666 4.557 6.51997C4.49307 6.79573 4.48795 7.08187 4.542 7.35973C4.60047 7.65532 4.72376 7.93427 4.903 8.1765L7.543 11.2226C7.58967 11.2763 7.64726 11.3194 7.71193 11.3491C7.7766 11.3787 7.84685 11.3943 7.918 11.3946C7.98867 11.3946 8.05854 11.3797 8.12301 11.3507C8.18748 11.3218 8.24507 11.2795 8.292 11.2266L10.944 8.23649C11.1224 8.02281 11.2534 7.77367 11.3282 7.50557C11.4031 7.23746 11.4201 6.95652 11.3781 6.68136C11.3361 6.40619 11.2361 6.14309 11.0847 5.90948C10.9333 5.67587 10.734 5.47709 10.5 5.32631V5.32631ZM10.19 7.58567L7.925 10.137L5.69 7.56168C5.6075 7.44429 5.55091 7.31071 5.524 7.16979C5.49618 7.02721 5.4989 6.88036 5.532 6.73891C5.57857 6.53027 5.69586 6.34414 5.864 6.21206C6.03168 6.08073 6.239 6.01023 6.452 6.01211H6.473C6.69427 6.0123 6.91035 6.07919 7.093 6.20406C7.27475 6.33149 7.41104 6.51363 7.482 6.72391C7.51577 6.8225 7.57952 6.90807 7.66433 6.96865C7.74914 7.02924 7.85076 7.06181 7.955 7.06182V7.06182C8.05936 7.06174 8.16108 7.02902 8.2459 6.96825C8.33072 6.90747 8.3944 6.82169 8.428 6.72291C8.498 6.51546 8.63142 6.33523 8.80942 6.20769C8.98742 6.08015 9.201 6.01173 9.42 6.01211H9.44C9.62299 6.01342 9.80188 6.06645 9.956 6.16507C10.1099 6.26459 10.2329 6.40519 10.311 6.57096C10.388 6.73694 10.4161 6.92143 10.392 7.10281C10.3708 7.27975 10.3001 7.44712 10.188 7.58567H10.19Z" fill="black"/>
</svg>

<svg id="Layer_1" data-name="Layer 1" xmlns="http://www.w3.org/2000/svg" viewBox="0 0 16 16"><title>giving</title><path d="M15,2.707l-2.449,0a.541.541,0,0,0-.079-.021.5.5,0,0,0-.14.021L3.646,2.688a.257.257,0,0,0-.038-.008h0c-.013,0-.024.006-.038.007l-2.545,0h0a.5.5,0,0,0-.353.146.5.5,0,0,0-.147.354l0,2.479A.412.412,0,0,0,.5,5.748a.441.441,0,0,0,.019.1L.508,12.8a.5.5,0,0,0,.5.5l13.978.023h0a.5.5,0,0,0,.5-.5L15.5,3.208A.5.5,0,0,0,15,2.707Zm-3.212,9.608L4.06,12.3A3.053,3.053,0,0,0,1.513,9.738l.005-3.533a3.022,3.022,0,0,0,.663-.177A3.079,3.079,0,0,0,3.867,4.364a3.073,3.073,0,0,0,.188-.676l7.9.013a2.879,2.879,0,0,0,.141.6,2.873,2.873,0,0,0,1.563,1.674,2.8,2.8,0,0,0,.832.207l0,3.472a3.14,3.14,0,0,0-1.773.859A3.176,3.176,0,0,0,11.789,12.315ZM14.5,5.186a1.8,1.8,0,0,1-1.059-.564,1.868,1.868,0,0,1-.4-.652,1.889,1.889,0,0,1-.065-.267l1.522,0ZM3.034,3.687a2.166,2.166,0,0,1-.089.291,2.089,2.089,0,0,1-.457.675,2.067,2.067,0,0,1-.682.448,1.959,1.959,0,0,1-.287.084l0-1.5ZM1.511,10.753A2.069,2.069,0,0,1,3.044,12.3l-1.535,0ZM12.8,12.317a2.2,2.2,0,0,1,1.692-1.647l0,1.649Zm-2.3-6.99a1.965,1.965,0,0,0-1.049-.312,2.1,2.1,0,0,0-1.208.374,2.028,2.028,0,0,0-.286.243A2,2,0,0,0,7.67,5.39a2.063,2.063,0,0,0-2.423.037,1.922,1.922,0,0,0-.69,1.094,2.016,2.016,0,0,0-.015.84,2.039,2.039,0,0,0,.361.817l2.64,3.047a.5.5,0,0,0,.375.172h0a.5.5,0,0,0,.374-.168l2.652-2.991A1.965,1.965,0,0,0,10.5,5.327Zm-.31,2.26L7.925,10.139,5.69,7.563a1.012,1.012,0,0,1-.166-.392,1.028,1.028,0,0,1,.008-.431.927.927,0,0,1,.332-.527.94.94,0,0,1,.588-.2h.021a1.1,1.1,0,0,1,.62.192,1.042,1.042,0,0,1,.389.52.5.5,0,0,0,.473.338h0a.5.5,0,0,0,.473-.339,1.045,1.045,0,0,1,.992-.711h.02a.97.97,0,0,1,.516.153.982.982,0,0,1,.355.406.963.963,0,0,1,.081.532A.947.947,0,0,1,10.188,7.587Z"/></svg>
